src/assets/man.svg

<svg width="135" height="136" viewBox="0 0 135 136" fill="none" xmlns="http://www.w3.org/2000/svg">
<g filter="url(#filter0_ii)">
<path fill-rule="evenodd" clip-rule="evenodd" d="M67.5 135C104.779 135 135 104.779 135 67.5C135 30.2208 104.779 0 67.5 0C30.2208 0 0 30.2208 0 67.5C0 104.779 30.2208 135 67.5 135Z" fill="#DDE1E7"/>
</g>
<mask id="mask0" mask-type="alpha" maskUnits="userSpaceOnUse" x="-1" y="-1" width="137" height="137">
<path fill-rule="evenodd" clip-rule="evenodd" d="M67.5 135C104.779 135 135 104.779 135 67.5C135 30.2208 104.779 0 67.5 0C30.2208 0 0 30.2208 0 67.5C0 104.779 30.2208 135 67.5 135Z" fill="white" stroke="#4A4A4A"/>
</mask>
<g mask="url(#mask0)">
<path d="M78.1042 96.1791C72.2119 93.1331 73.2922 88.8098 73.2922 88.8098H61.704C61.704 88.8098 62.7843 93.1331 56.892 96.1791C49.3302 100.109 41.2774 100.699 44.6163 138.233C65.6322 138.233 69.364 138.233 90.3799 138.233C93.7188 100.699 85.666 100.109 78.1042 96.1791Z" fill="#E0A39A" stroke="black" stroke-width="1.0195" stroke-miterlimit="10"/>
<path d="M67.5999 7.74797C65.5376 7.64972 38.6294 7.15843 38.6294 40.271C38.6294 80.458 42.8522 89.7924 67.5999 89.7924C92.3475 89.7924 96.4722 80.5562 96.4722 40.271C96.4722 7.15843 69.564 7.64972 67.5999 7.74797Z" fill="#E0A39A" stroke="black" stroke-width="1.0195" stroke-miterlimit="10"/>
<path d="M81.3479 50.9807C82.0353 50.1947 83.803 48.1313 86.9456 51.472" stroke="black" stroke-width="1.0195" stroke-miterlimit="10" stroke-linecap="round" stroke-linejoin="round"/>
<path d="M53.6533 50.9807C52.9659 50.1947 51.1982 48.1313 48.0557 51.472" stroke="black" stroke-width="1.0195" stroke-miterlimit="10" stroke-linecap="round" stroke-linejoin="round"/>
<path d="M63.1802 72.9902H71.8222" stroke="black" stroke-width="1.0195" stroke-miterlimit="10" stroke-linecap="round" stroke-linejoin="round"/>
<path d="M97.1604 21.6021C97.1604 21.7003 97.1604 21.7003 97.1604 21.6021C96.3747 19.2439 94.9999 16.8858 93.0358 14.7241C87.8309 9.12347 80.0727 6.0775 72.7073 5.97925C65.1455 5.97925 58.173 8.73044 51.004 10.9903C48.4507 11.7764 45.6027 12.6607 42.853 12.5625C41.5763 12.5625 40.4961 12.2677 39.3176 11.7764C39.023 11.7764 38.532 10.9903 38.2374 11.0886C35.9787 11.3834 34.1128 17.6718 33.6217 19.4404C32.9343 22.7812 32.8361 27.0062 34.211 30.1504C34.3092 30.4452 34.4074 30.6417 34.6038 30.8382C33.6217 36.9301 34.3092 49.114 35.4876 54.9111C36.2733 54.5181 37.1571 54.4198 38.041 54.5181C38.3356 54.6164 38.6302 54.7146 38.9248 54.9111C38.6302 50.5878 38.532 45.7732 38.532 40.2709C38.532 38.3057 38.6302 36.3406 38.8266 34.572C43.6386 36.4389 50.4148 34.8667 55.1286 34.8667C68.5827 34.8667 82.9206 42.1377 95.8837 35.7511C95.8837 36.3406 95.9819 36.4389 96.2765 36.3406C96.3747 37.6179 96.4729 38.8953 96.4729 40.2709C96.4729 45.8715 96.3747 50.8826 96.1783 55.3042C96.3747 55.1076 96.5711 55.0094 96.7675 54.9111C97.1604 54.7146 97.6514 54.7146 98.0442 54.7146C98.3388 54.7146 98.7316 54.8129 99.0263 54.8129C101.874 46.461 103.937 28.087 97.1604 21.6021Z" fill="#7B5B18" stroke="black" stroke-width="1.0195" stroke-miterlimit="10"/>
<path d="M102.856 59.136C102.659 56.8761 101.579 54.2231 99.222 53.5353C97.9453 53.1423 97.1597 53.8301 96.1776 54.2231C95.9812 58.6447 95.6866 62.5749 95.1956 66.0139C99.3202 65.9157 103.248 64.147 102.856 59.136Z" fill="#E0A39A" stroke="black" stroke-width="1.0195" stroke-miterlimit="10"/>
<path d="M38.8222 54.3216C37.9384 53.8303 37.1528 53.2408 35.7779 53.6338C33.421 54.3216 32.3407 56.9745 32.1443 59.2344C31.6533 64.2455 35.6797 66.0141 39.7061 66.1124C39.3133 62.6734 39.0187 58.7431 38.8222 54.3216Z" fill="#E0A39A" stroke="black" stroke-width="1.0195" stroke-miterlimit="10"/>
<path d="M78.6373 96.1C78.5373 96.1 78.5373 96 78.4373 96C76.6373 99.5 72.5373 102 67.7373 102C62.9373 102 58.8373 99.5 57.0373 96C56.9373 96 56.9373 96.1 56.8373 96.1C49.1373 100.1 40.9373 100.7 44.3373 138.9C65.7373 138.9 69.5373 138.9 90.9373 138.9C94.5373 100.7 86.3373 100.1 78.6373 96.1Z" fill="#1C3E8E"/>
<path d="M78.6372 96.1C78.5372 96.1 78.5372 96 78.4372 96C77.8372 97.2 76.9372 98.2 75.8372 99.1C78.2372 98.9 80.5372 98.6 82.7372 98.1C81.4372 97.4 80.0372 96.8 78.6372 96.1Z" fill="#C0C4C7"/>
<path d="M57.0373 96C56.9373 96 56.9373 96.1 56.8373 96.1C55.4373 96.8 54.0373 97.4 52.7373 98.2C54.9373 98.6 57.2373 98.9 59.5373 99.2C58.5373 98.2 57.6373 97.2 57.0373 96Z" fill="#C0C4C7"/>
<path d="M90.037 107.3C89.537 105.8 89.037 104.6 88.437 103.5C84.037 105.1 77.137 106.4 67.937 106.4C58.537 106.4 51.537 105 47.137 103.4C46.537 104.4 45.937 105.7 45.437 107.1C51.237 109.3 59.637 110.5 67.937 110.5C76.037 110.5 84.237 109.4 90.037 107.3Z" fill="#C0C4C7"/>
<path d="M91.6373 117.6C91.5373 116 91.4373 114.6 91.2373 113.2C87.3373 115.3 79.4373 117.4 67.9373 117.4C56.0373 117.4 47.9373 115.2 44.1373 113C43.9373 114.3 43.8373 115.8 43.7373 117.3C49.5373 120 58.7373 121.4 67.9373 121.4C76.8373 121.5 85.8373 120.2 91.6373 117.6Z" fill="#C0C4C7"/>
<path d="M91.6373 128.4C91.7373 126.8 91.7373 125.2 91.7373 123.8C88.0373 126 79.9373 128.3 67.7373 128.3C55.2373 128.3 46.9373 125.9 43.4373 123.6C43.4373 125.1 43.4373 126.6 43.5373 128.3C49.3373 131 58.5373 132.4 67.7373 132.4C76.8373 132.4 85.8373 131.1 91.6373 128.4Z" fill="#C0C4C7"/>
<path d="M44.0374 134.9C44.1374 136.2 44.2374 137.5 44.3374 138.9C50.6374 138.9 55.3374 138.9 59.4374 138.9C52.0374 138.2 46.8374 136.5 44.0374 134.9Z" fill="#C0C4C7"/>
<path d="M90.9374 138.9C91.0374 137.6 91.1373 136.3 91.2373 135.1C88.3373 136.6 83.2374 138.2 76.0374 138.9C80.1374 138.9 84.8374 138.9 90.9374 138.9Z" fill="#C0C4C7"/>
<path d="M83.5364 111.8C83.1364 116.8 82.6364 124.3 82.5364 138.9" stroke="black" stroke-width="0.5" stroke-miterlimit="10" stroke-linecap="round" stroke-linejoin="round"/>
<path d="M51.9365 111.8C52.3365 116.8 52.8365 124.3 52.9365 138.9" stroke="black" stroke-width="0.5" stroke-miterlimit="10" stroke-linecap="round" stroke-linejoin="round"/>
<path d="M79.3365 96.5C79.1365 96.4 78.8365 96.3 78.6365 96.1C78.5365 96.1 78.5365 96 78.4365 96C76.6365 99.5 72.5365 102 67.7365 102C62.9365 102 58.9365 99.5 57.0365 96.1C49.3365 100.1 41.1365 100.7 44.5365 138.9H90.9365C94.4365 101.9 86.8365 100.2 79.3365 96.5Z" stroke="#1D1D1B" stroke-width="0.5" stroke-miterlimit="10" stroke-linecap="round" stroke-linejoin="round"/>
<path d="M83.0199 111.605C82.6271 116.518 82.136 123.887 82.0378 138.233" stroke="black" stroke-width="1.0195" stroke-miterlimit="10" stroke-linecap="round" stroke-linejoin="round"/>
<path d="M51.9854 111.605C52.3782 116.518 52.8692 123.887 52.9674 138.233" stroke="black" stroke-width="1.0195" stroke-miterlimit="10" stroke-linecap="round" stroke-linejoin="round"/>
<path d="M84.4885 55.8936C83.5065 55.8936 82.7209 56.6796 82.2298 57.2691C82.0334 57.5639 82.0334 57.8587 82.2298 58.1535C82.6226 58.6447 83.5065 59.5291 84.4885 59.5291C85.8634 59.5291 87.0419 57.7604 87.0419 57.7604C87.0419 57.7604 85.8634 55.8936 84.4885 55.8936Z" fill="#61584F" stroke="black" stroke-width="0.5" stroke-miterlimit="10" stroke-linecap="round" stroke-linejoin="round"/>
<path d="M84.588 59.4306C85.3473 59.4306 85.9629 58.6387 85.9629 57.6619C85.9629 56.6851 85.3473 55.8933 84.588 55.8933C83.8287 55.8933 83.2131 56.6851 83.2131 57.6619C83.2131 58.6387 83.8287 59.4306 84.588 59.4306Z" fill="black"/>
<path d="M83.6046 57.6622C83.93 57.6622 84.1938 57.3983 84.1938 57.0727C84.1938 56.7471 83.93 56.4832 83.6046 56.4832C83.2792 56.4832 83.0154 56.7471 83.0154 57.0727C83.0154 57.3983 83.2792 57.6622 83.6046 57.6622Z" fill="#DDDFE2"/>
<path d="M50.609 55.8938C51.591 55.8938 52.3767 56.6799 52.8677 57.2694C53.0641 57.5642 53.0641 57.8589 52.8677 58.1537C52.4749 58.645 51.591 59.5293 50.609 59.5293C49.2341 59.5293 48.0557 57.7607 48.0557 57.7607C48.0557 57.7607 49.1359 55.8938 50.609 55.8938Z" fill="#61584F" stroke="black" stroke-width="0.5" stroke-miterlimit="10" stroke-linecap="round" stroke-linejoin="round"/>
<path d="M50.4142 59.431C51.1735 59.431 51.789 58.6392 51.789 57.6624C51.789 56.6856 51.1735 55.8938 50.4142 55.8938C49.6549 55.8938 49.0393 56.6856 49.0393 57.6624C49.0393 58.6392 49.6549 59.431 50.4142 59.431Z" fill="black"/>
<path d="M51.3981 57.6622C51.7235 57.6622 51.9873 57.3983 51.9873 57.0727C51.9873 56.7471 51.7235 56.4832 51.3981 56.4832C51.0726 56.4832 50.8088 56.7471 50.8088 57.0727C50.8088 57.3983 51.0726 57.6622 51.3981 57.6622Z" fill="#DDDFE2"/>
<path d="M66.8147 56.0903C66.5201 58.9398 64.7524 62.5753 66.8147 62.9683C68.877 63.3613 70.9393 62.9683 70.9393 62.9683" stroke="black" stroke-width="1.0195" stroke-miterlimit="10" stroke-linecap="round" stroke-linejoin="round"/>
</g>
<defs>
<filter id="filter0_ii" x="-1" y="-1" width="137" height="137" filterUnits="userSpaceOnUse" color-interpolation-filters="sRGB">
<feFlood flood-opacity="0" result="BackgroundImageFix"/>
<feBlend mode="normal" in="SourceGraphic" in2="BackgroundImageFix" result="shape"/>
<feColorMatrix in="SourceAlpha" type="matrix" values="0 0 0 0 0 0 0 0 0 0 0 0 0 0 0 0 0 0 127 0" result="hardAlpha"/>
<feOffset dx="-1" dy="-1"/>
<feGaussianBlur stdDeviation="1.5"/>
<feComposite in2="hardAlpha" operator="arithmetic" k2="-1" k3="1"/>
<feColorMatrix type="matrix" values="0 0 0 0 1 0 0 0 0 1 0 0 0 0 1 0 0 0 0.6 0"/>
<feBlend mode="screen" in2="shape" result="effect1_innerShadow"/>
<feColorMatrix in="SourceAlpha" type="matrix" values="0 0 0 0 0 0 0 0 0 0 0 0 0 0 0 0 0 0 127 0" result="hardAlpha"/>
<feOffset dx="1" dy="1"/>
<feGaussianBlur stdDeviation="1.5"/>
<feComposite in2="hardAlpha" operator="arithmetic" k2="-1" k3="1"/>
<feColorMatrix type="matrix" values="0 0 0 0 0.368627 0 0 0 0 0.407843 0 0 0 0 0.47451 0 0 0 0.692 0"/>
<feBlend mode="normal" in2="effect1_innerShadow" result="effect2_innerShadow"/>
</filter>
</defs>
</svg>

<?xml version="1.0" encoding="utf-8"?>
<!-- Generator: Adobe Illustrator 23.0.0, SVG Export Plug-In . SVG Version: 6.00 Build 0)  -->
<svg version="1.1" id="Calque_1" xmlns="http://www.w3.org/2000/svg" xmlns:xlink="http://www.w3.org/1999/xlink" x="0px" y="0px"
	 viewBox="0 0 135 136" style="enable-background:new 0 0 135 136;" xml:space="preserve">
<style type="text/css">
	.st0{fill-rule:evenodd;clip-rule:evenodd;fill:#DDE1E7;}
	.st1{fill-rule:evenodd;clip-rule:evenodd;fill:#FFFFFF;filter:url(#Adobe_OpacityMaskFilter);stroke:#4A4A4A;}
	.st2{mask:url(#mask0_1_);}
	.st3{fill:#E0A39A;stroke:#000000;stroke-width:1.0195;stroke-miterlimit:10;}
	.st4{fill:none;stroke:#000000;stroke-width:1.0195;stroke-linecap:round;stroke-linejoin:round;stroke-miterlimit:10;}
	.st5{fill:#7B5B18;stroke:#000000;stroke-width:1.0195;stroke-miterlimit:10;}
	.st6{fill:#1C3E8E;}
	.st7{fill:#C0C4C7;}
	.st8{fill:none;stroke:#000000;stroke-width:0.5;stroke-linecap:round;stroke-linejoin:round;stroke-miterlimit:10;}
	.st9{fill:none;stroke:#1D1D1B;stroke-width:0.5;stroke-linecap:round;stroke-linejoin:round;stroke-miterlimit:10;}
	.st10{fill:#61584F;stroke:#000000;stroke-width:0.5;stroke-linecap:round;stroke-linejoin:round;stroke-miterlimit:10;}
	.st11{fill:#DDDFE2;}
</style>
<g>
	<path class="st0" d="M67.5,135c37.3,0,67.5-30.2,67.5-67.5C135,30.2,104.8,0,67.5,0C30.2,0,0,30.2,0,67.5
		C0,104.8,30.2,135,67.5,135z"/>
</g>
<defs>
	<filter id="Adobe_OpacityMaskFilter" filterUnits="userSpaceOnUse" x="31.6" y="5.5" width="71.8" height="133.7">
		<feColorMatrix  type="matrix" values="1 0 0 0 0  0 1 0 0 0  0 0 1 0 0  0 0 0 1 0"/>
	</filter>
</defs>
<mask maskUnits="userSpaceOnUse" x="31.6" y="5.5" width="71.8" height="133.7" id="mask0_1_">
	<path class="st1" d="M67.5,135c37.3,0,67.5-30.2,67.5-67.5C135,30.2,104.8,0,67.5,0C30.2,0,0,30.2,0,67.5
		C0,104.8,30.2,135,67.5,135z"/>
</mask>
<g class="st2">
	<path class="st3" d="M78.1,96.2c-5.9-3-4.8-7.4-4.8-7.4H61.7c0,0,1.1,4.3-4.8,7.4c-7.6,3.9-15.6,4.5-12.3,42.1c21,0,24.7,0,45.8,0
		C93.7,100.7,85.7,100.1,78.1,96.2z"/>
	<path class="st3" d="M67.6,7.7c-2.1-0.1-29-0.6-29,32.5c0,40.2,4.2,49.5,29,49.5c24.7,0,28.9-9.2,28.9-49.5
		C96.5,7.2,69.6,7.6,67.6,7.7z"/>
	<path class="st4" d="M81.3,51c0.7-0.8,2.5-2.8,5.6,0.5"/>
	<path class="st4" d="M53.7,51c-0.7-0.8-2.5-2.8-5.6,0.5"/>
	<path class="st4" d="M63.2,73h8.6"/>
	<path class="st5" d="M97.2,21.6C97.2,21.7,97.2,21.7,97.2,21.6c-0.8-2.4-2.2-4.7-4.1-6.9c-5.2-5.6-13-8.6-20.3-8.7
		C65.1,6,58.2,8.7,51,11c-2.6,0.8-5.4,1.7-8.2,1.6c-1.3,0-2.4-0.3-3.5-0.8c-0.3,0-0.8-0.8-1.1-0.7c-2.3,0.3-4.1,6.6-4.6,8.4
		c-0.7,3.3-0.8,7.6,0.6,10.7c0.1,0.3,0.2,0.5,0.4,0.7c-1,6.1-0.3,18.3,0.9,24.1c0.8-0.4,1.7-0.5,2.6-0.4c0.3,0.1,0.6,0.2,0.9,0.4
		c-0.3-4.3-0.4-9.1-0.4-14.6c0-2,0.1-3.9,0.3-5.7c4.8,1.9,11.6,0.3,16.3,0.3c13.5,0,27.8,7.3,40.8,0.9c0,0.6,0.1,0.7,0.4,0.6
		c0.1,1.3,0.2,2.6,0.2,3.9c0,5.6-0.1,10.6-0.3,15c0.2-0.2,0.4-0.3,0.6-0.4c0.4-0.2,0.9-0.2,1.3-0.2c0.3,0,0.7,0.1,1,0.1
		C101.9,46.5,103.9,28.1,97.2,21.6z"/>
	<path class="st3" d="M102.9,59.1c-0.2-2.3-1.3-4.9-3.6-5.6c-1.3-0.4-2.1,0.3-3,0.7c-0.2,4.4-0.5,8.4-1,11.8
		C99.3,65.9,103.2,64.1,102.9,59.1z"/>
	<path class="st3" d="M38.8,54.3c-0.9-0.5-1.7-1.1-3-0.7c-2.4,0.7-3.4,3.3-3.6,5.6c-0.5,5,3.5,6.8,7.6,6.9
		C39.3,62.7,39,58.7,38.8,54.3z"/>
	<path class="st6" d="M78.6,96.1c-0.1,0-0.1-0.1-0.2-0.1c-1.8,3.5-5.9,6-10.7,6c-4.8,0-8.9-2.5-10.7-6c-0.1,0-0.1,0.1-0.2,0.1
		c-7.7,4-15.9,4.6-12.5,42.8c21.4,0,25.2,0,46.6,0C94.5,100.7,86.3,100.1,78.6,96.1z"/>
	<path class="st7" d="M78.6,96.1c-0.1,0-0.1-0.1-0.2-0.1c-0.6,1.2-1.5,2.2-2.6,3.1c2.4-0.2,4.7-0.5,6.9-1
		C81.4,97.4,80,96.8,78.6,96.1z"/>
	<path class="st7" d="M57,96c-0.1,0-0.1,0.1-0.2,0.1c-1.4,0.7-2.8,1.3-4.1,2.1c2.2,0.4,4.5,0.7,6.8,1C58.5,98.2,57.6,97.2,57,96z"/>
	<path class="st7" d="M90,107.3c-0.5-1.5-1-2.7-1.6-3.8c-4.4,1.6-11.3,2.9-20.5,2.9c-9.4,0-16.4-1.4-20.8-3c-0.6,1-1.2,2.3-1.7,3.7
		c5.8,2.2,14.2,3.4,22.5,3.4C76,110.5,84.2,109.4,90,107.3z"/>
	<path class="st7" d="M91.6,117.6c-0.1-1.6-0.2-3-0.4-4.4c-3.9,2.1-11.8,4.2-23.3,4.2c-11.9,0-20-2.2-23.8-4.4
		c-0.2,1.3-0.3,2.8-0.4,4.3c5.8,2.7,15,4.1,24.2,4.1C76.8,121.5,85.8,120.2,91.6,117.6z"/>
	<path class="st7" d="M91.6,128.4c0.1-1.6,0.1-3.2,0.1-4.6c-3.7,2.2-11.8,4.5-24,4.5c-12.5,0-20.8-2.4-24.3-4.7c0,1.5,0,3,0.1,4.7
		c5.8,2.7,15,4.1,24.2,4.1C76.8,132.4,85.8,131.1,91.6,128.4z"/>
	<path class="st7" d="M44,134.9c0.1,1.3,0.2,2.6,0.3,4c6.3,0,11,0,15.1,0C52,138.2,46.8,136.5,44,134.9z"/>
	<path class="st7" d="M90.9,138.9c0.1-1.3,0.2-2.6,0.3-3.8c-2.9,1.5-8,3.1-15.2,3.8C80.1,138.9,84.8,138.9,90.9,138.9z"/>
	<path class="st8" d="M83.5,111.8c-0.4,5-0.9,12.5-1,27.1"/>
	<path class="st8" d="M51.9,111.8c0.4,5,0.9,12.5,1,27.1"/>
	<path class="st9" d="M79.3,96.5c-0.2-0.1-0.5-0.2-0.7-0.4c-0.1,0-0.1-0.1-0.2-0.1c-1.8,3.5-5.9,6-10.7,6c-4.8,0-8.8-2.5-10.7-5.9
		c-7.7,4-15.9,4.6-12.5,42.8h46.4C94.4,101.9,86.8,100.2,79.3,96.5z"/>
	<path class="st4" d="M83,111.6c-0.4,4.9-0.9,12.3-1,26.6"/>
	<path class="st4" d="M52,111.6c0.4,4.9,0.9,12.3,1,26.6"/>
	<path class="st10" d="M84.5,55.9c-1,0-1.8,0.8-2.3,1.4c-0.2,0.3-0.2,0.6,0,0.9c0.4,0.5,1.3,1.4,2.3,1.4c1.4,0,2.6-1.8,2.6-1.8
		S85.9,55.9,84.5,55.9z"/>
	<path d="M84.6,59.4c0.8,0,1.4-0.8,1.4-1.8s-0.6-1.8-1.4-1.8s-1.4,0.8-1.4,1.8S83.8,59.4,84.6,59.4z"/>
	<path class="st11" d="M83.6,57.7c0.3,0,0.6-0.3,0.6-0.6s-0.3-0.6-0.6-0.6S83,56.7,83,57.1S83.3,57.7,83.6,57.7z"/>
	<path class="st10" d="M50.6,55.9c1,0,1.8,0.8,2.3,1.4c0.2,0.3,0.2,0.6,0,0.9c-0.4,0.5-1.3,1.4-2.3,1.4c-1.4,0-2.6-1.8-2.6-1.8
		S49.1,55.9,50.6,55.9z"/>
	<path d="M50.4,59.4c0.8,0,1.4-0.8,1.4-1.8s-0.6-1.8-1.4-1.8S49,56.7,49,57.7S49.7,59.4,50.4,59.4z"/>
	<path class="st11" d="M51.4,57.7c0.3,0,0.6-0.3,0.6-0.6s-0.3-0.6-0.6-0.6c-0.3,0-0.6,0.3-0.6,0.6S51.1,57.7,51.4,57.7z"/>
	<path class="st4" d="M66.8,56.1c-0.3,2.8-2.1,6.5,0,6.9c2.1,0.4,4.1,0,4.1,0"/>
</g>
</svg>
